public/images/backpack.svg

<svg width="34" height="34" viewBox="0 0 34 34" fill="none" xmlns="http://www.w3.org/2000/svg">
<path d="M7.79166 31.1667C7.20138 31.1667 6.69964 30.9601 6.28645 30.5469C5.87325 30.1337 5.66666 29.6319 5.66666 29.0417V10.9792C5.66666 9.68055 6.06805 8.55312 6.87082 7.59687C7.6736 6.64062 8.68888 6.04444 9.91666 5.80833V4.60416C9.91666 4.10833 10.0878 3.68923 10.4302 3.34687C10.7726 3.00451 11.1917 2.83333 11.6875 2.83333C12.1833 2.83333 12.6024 3.00451 12.9448 3.34687C13.2871 3.68923 13.4583 4.10833 13.4583 4.60416V5.66666H20.5417V4.60416C20.5417 4.10833 20.7128 3.68923 21.0552 3.34687C21.3976 3.00451 21.8167 2.83333 22.3125 2.83333C22.8083 2.83333 23.2274 3.00451 23.5698 3.34687C23.9121 3.68923 24.0833 4.10833 24.0833 4.60416V5.80833C25.3111 6.04444 26.3264 6.64062 27.1292 7.59687C27.9319 8.55312 28.3333 9.68055 28.3333 10.9792V29.0417C28.3333 29.6319 28.1267 30.1337 27.7135 30.5469C27.3003 30.9601 26.7986 31.1667 26.2083 31.1667H7.79166ZM7.79166 29.0417H26.2083V10.9792C26.2083 10.0819 25.9014 9.32638 25.2875 8.7125C24.6736 8.09861 23.918 7.79166 23.0208 7.79166H10.9792C10.1055 7.79166 9.35589 8.09861 8.7302 8.7125C8.1045 9.32638 7.79166 10.0819 7.79166 10.9792V29.0417ZM23.0208 22.3125C23.3278 22.3125 23.5816 22.2121 23.7823 22.0115C23.983 21.8108 24.0833 21.5569 24.0833 21.25V18.4167C24.0833 18.1097 23.983 17.8559 23.7823 17.6552C23.5816 17.4545 23.3278 17.3542 23.0208 17.3542H10.9792C10.6722 17.3542 10.4184 17.4545 10.2177 17.6552C10.017 17.8559 9.91666 18.1097 9.91666 18.4167C9.91666 18.7236 10.017 18.9774 10.2177 19.1781C10.4184 19.3788 10.6722 19.4792 10.9792 19.4792H21.9583V21.25C21.9583 21.5569 22.0587 21.8108 22.2594 22.0115C22.4601 22.2121 22.7139 22.3125 23.0208 22.3125Z" fill="black"/>
</svg>

<svg xmlns="http://www.w3.org/2000/svg" width="34" height="34" fill="none" viewBox="0 0 34 34"><path fill="#000" d="M7.792 31.167a2.05 2.05 0 0 1-1.506-.62 2.05 2.05 0 0 1-.62-1.505V10.979c0-1.298.402-2.426 1.205-3.382a5.13 5.13 0 0 1 3.046-1.789V4.604c0-.496.17-.915.513-1.257a1.71 1.71 0 0 1 1.258-.514c.495 0 .914.172 1.257.514.342.342.513.761.513 1.257v1.063h7.084V4.604c0-.496.17-.915.513-1.257a1.71 1.71 0 0 1 1.258-.514c.495 0 .914.172 1.257.514.342.342.513.761.513 1.257v1.204a5.13 5.13 0 0 1 3.046 1.789c.803.956 1.204 2.084 1.204 3.382v18.063a2.05 2.05 0 0 1-.62 1.505 2.05 2.05 0 0 1-1.505.62H7.792zm0-2.125h18.416V10.979c0-.897-.307-1.653-.92-2.266-.614-.614-1.37-.921-2.267-.921H10.979c-.873 0-1.623.307-2.249.92-.626.614-.938 1.37-.938 2.267v18.063zm15.229-6.73c.307 0 .56-.1.761-.3.201-.201.301-.455.301-.762v-2.833c0-.307-.1-.561-.3-.762-.201-.2-.455-.3-.762-.3H10.979c-.307 0-.56.1-.761.3-.201.2-.301.455-.301.762s.1.56.3.761c.201.2.455.301.762.301h10.98v1.771c0 .307.1.56.3.762.201.2.455.3.762.3z"/></svg>
